brandFactory_export/1.Light/Lengua _1Light.svg

<?xml version="1.0" encoding="UTF-8"?>
<svg width="24px" height="24px" viewBox="0 0 24 24" version="1.1" xmlns="http://www.w3.org/2000/svg" xmlns:xlink="http://www.w3.org/1999/xlink">
    <title>1.Light/Lengua _1Light</title>
    <g id="Symbols" stroke="none" stroke-width="1" fill="none" fill-rule="evenodd">
        <g id="1.Light/Lengua-_1Light" fill="#5CB615" fill-rule="nonzero">
            <path d="M18.6957983,9.83193277 C18.6957983,17.8655462 16.897479,20.7092437 11.8285714,20.7092437 C6.75630252,20.7092437 4.96134454,17.8621849 4.96134454,9.83193277 C4.96134454,8.67563025 4.99831933,7.67058824 5.06890756,6.75294118 C6.83361345,7.46890756 8.91764706,7.85210084 11.3008403,7.90252101 L11.3478992,16.8168067 C11.3478992,17.092437 11.5731092,17.3109244 11.8521008,17.3109244 L11.8554622,17.3109244 C12.1310924,17.307563 12.3563025,17.0857143 12.3563025,16.810084 L12.3092437,7.89915966 C14.7159664,7.85210084 16.8134454,7.46554622 18.5882353,6.74285714 C18.6588235,7.6605042 18.6957983,8.66890756 18.6957983,9.83193277 M23.3983193,2.11092437 C23.1663866,1.95966387 22.8537815,2.02352941 22.6991597,2.25210084 C20.6252101,5.35462185 16.9613445,6.92773109 11.8184874,6.92773109 C6.66890756,6.92773109 3.00168067,5.3512605 0.927731092,2.23865546 C0.773109244,2.00672269 0.457142857,1.94285714 0.228571429,2.09747899 C-0.00672268908,2.2487395 -0.0672268908,2.55798319 0.0840336134,2.78655462 C1.09243697,4.29915966 2.45378151,5.46218487 4.11092437,6.30588235 C4.10084034,6.33613445 4.08739496,6.36302521 4.08403361,6.39663866 C3.99327731,7.40840336 3.94957983,8.53109244 3.94957983,9.82857143 C3.94957983,17.1563025 5.26722689,21.7008403 11.8252101,21.7008403 C18.3831933,21.7008403 19.7008403,17.1563025 19.7008403,9.82857143 C19.7008403,8.58151261 19.6605042,7.49915966 19.5798319,6.52436975 C19.5731092,6.44705882 19.5428571,6.37647059 19.5058824,6.31260504 C21.1663866,5.46554622 22.5277311,4.30588235 23.5394958,2.79663866 C23.6941176,2.57142857 23.6302521,2.26218487 23.3983193,2.11092437" id="Lengua-_1Light"></path>
        </g>
    </g>
</svg>

<svg width="24" height="24" viewBox="0 0 24 24" xmlns="http://www.w3.org/2000/svg"><path d="M18.696 9.832c0 8.034-1.799 10.877-6.867 10.877-5.073 0-6.868-2.847-6.868-10.877 0-1.156.037-2.161.108-3.08 1.765.717 3.849 1.1 6.232 1.15l.047 8.915c0 .275.225.494.504.494h.003a.504.504 0 00.501-.5l-.047-8.912c2.407-.047 4.504-.433 6.28-1.156.07.918.107 1.926.107 3.089m4.702-7.721a.51.51 0 00-.699.141c-2.074 3.103-5.738 4.676-10.88 4.676-5.15 0-8.817-1.577-10.891-4.69a.505.505 0 00-.7-.14.493.493 0 00-.144.689c1.008 1.512 2.37 2.675 4.027 3.519-.01.03-.024.057-.027.09A38.471 38.471 0 003.95 9.83c0 7.327 1.317 11.872 7.875 11.872s7.876-4.545 7.876-11.872c0-1.247-.04-2.33-.121-3.305a.514.514 0 00-.074-.211c1.66-.847 3.022-2.007 4.033-3.516a.489.489 0 00-.14-.686" fill="#5CB615" fill-rule="nonzero"/></svg>
